X:232
T:The Kerfunken
R:jig
M:6/8
L:1/8
K:D
FF2- FED | FGA Bcd | A2A dAF | E2E EDE |
FF2- FED | FGA Bcd | A2A dAF |1 EFE D3 :|2 GEC D2E |:
d2d- def | B2B- B2A | d2d- def | fed edc |
d2d- def | B2B- B2B | A2A dAF |1 GEC D3 :|2 EFE D3 |]
